packages/assets/static/images/icons/bold/file-png--bold.svg

<svg width="24" height="24" viewBox="0 0 24 24" xmlns="http://www.w3.org/2000/svg">
<path d="M5.06244 13.8755H3.56244C3.26407 13.8755 2.97792 13.994 2.76694 14.205C2.55597 14.416 2.43744 14.7021 2.43744 15.0005V20.2505C2.43744 20.5489 2.55597 20.835 2.76694 21.046C2.97792 21.257 3.26407 21.3755 3.56244 21.3755C3.86081 21.3755 4.14696 21.257 4.35793 21.046C4.56891 20.835 4.68744 20.5489 4.68744 20.2505V19.8755H5.06244C5.85809 19.8755 6.62115 19.5594 7.18376 18.9968C7.74637 18.4342 8.06244 17.6711 8.06244 16.8755C8.06244 16.0798 7.74637 15.3168 7.18376 14.7542C6.62115 14.1916 5.85809 13.8755 5.06244 13.8755ZM5.06244 17.6255H4.68744V16.1255H5.06244C5.26135 16.1255 5.45212 16.2045 5.59277 16.3452C5.73342 16.4858 5.81244 16.6766 5.81244 16.8755C5.81244 17.0744 5.73342 17.2652 5.59277 17.4058C5.45212 17.5465 5.26135 17.6255 5.06244 17.6255ZM21.5624 19.5821C21.5625 19.872 21.4507 20.1507 21.2503 20.3602C20.9543 20.6781 20.5964 20.9321 20.1987 21.1067C19.801 21.2813 19.3718 21.3728 18.9374 21.3755C17.0765 21.3755 15.5624 19.6927 15.5624 17.6255C15.5624 15.5583 17.0765 13.8755 18.9374 13.8755C19.5633 13.8773 20.1743 14.0667 20.6915 14.4192C20.8176 14.5002 20.9262 14.6056 21.011 14.7292C21.0958 14.8528 21.1551 14.992 21.1853 15.1388C21.2155 15.2856 21.2161 15.437 21.187 15.584C21.158 15.731 21.0998 15.8707 21.016 15.995C20.9322 16.1192 20.8244 16.2254 20.6989 16.3074C20.5735 16.3894 20.4329 16.4455 20.2855 16.4724C20.1381 16.4994 19.9867 16.4966 19.8404 16.4642C19.6941 16.4318 19.5557 16.3705 19.4334 16.2839C19.2878 16.1823 19.1149 16.1271 18.9374 16.1255C18.3281 16.1255 17.8124 16.8127 17.8124 17.6255C17.8124 18.4383 18.3281 19.1255 18.9374 19.1255C19.0233 19.1253 19.1087 19.112 19.1906 19.0861C19.0562 18.9212 18.9713 18.7215 18.9458 18.5103C18.9203 18.2991 18.9552 18.085 19.0465 17.8928C19.1378 17.7007 19.2817 17.5383 19.4615 17.4246C19.6413 17.3109 19.8497 17.2505 20.0624 17.2505H20.4374C20.7358 17.2505 21.022 17.369 21.2329 17.58C21.4439 17.791 21.5624 18.0771 21.5624 18.3755V19.5821ZM14.8124 15.0005V20.2505C14.8125 20.4889 14.7368 20.7212 14.5962 20.9138C14.4557 21.1064 14.2576 21.2493 14.0306 21.3221C13.9196 21.3573 13.8039 21.3753 13.6874 21.3755C13.5086 21.3757 13.3324 21.3333 13.1733 21.2517C13.0141 21.1702 12.8767 21.052 12.7724 20.9067L11.0624 18.5105V20.2505C11.0624 20.5489 10.9439 20.835 10.7329 21.046C10.522 21.257 10.2358 21.3755 9.93744 21.3755C9.63907 21.3755 9.35292 21.257 9.14194 21.046C8.93097 20.835 8.81244 20.5489 8.81244 20.2505V15.0005C8.81207 14.7621 8.88747 14.5297 9.02775 14.3369C9.16803 14.1441 9.36594 14.0008 9.59292 13.9278C9.8199 13.8548 10.0642 13.8558 10.2906 13.9306C10.517 14.0055 10.7137 14.1503 10.8524 14.3442L12.5624 16.7396V15.0005C12.5624 14.7021 12.681 14.416 12.8919 14.205C13.1029 13.994 13.3891 13.8755 13.6874 13.8755C13.9858 13.8755 14.272 13.994 14.4829 14.205C14.6939 14.416 14.8124 14.7021 14.8124 15.0005ZM4.31244 12.0005C4.61081 12.0005 4.89696 11.882 5.10793 11.671C5.31891 11.46 5.43744 11.1739 5.43744 10.8755V4.87549H12.5624V9.37549C12.5624 9.67386 12.681 9.96001 12.8919 10.171C13.1029 10.382 13.3891 10.5005 13.6874 10.5005H18.1874V10.8755C18.1874 11.1739 18.306 11.46 18.5169 11.671C18.7279 11.882 19.0141 12.0005 19.3124 12.0005C19.6108 12.0005 19.897 11.882 20.1079 11.671C20.3189 11.46 20.4374 11.1739 20.4374 10.8755V9.00049C20.4376 8.85271 20.4086 8.70635 20.3521 8.56978C20.2956 8.43321 20.2128 8.30911 20.1084 8.20455L14.8584 2.95455C14.7538 2.85011 14.6297 2.7673 14.4931 2.71084C14.3566 2.65437 14.2102 2.62537 14.0624 2.62549H5.06244C4.56516 2.62549 4.08824 2.82303 3.73661 3.17466C3.38498 3.52629 3.18744 4.00321 3.18744 4.50049V10.8755C3.18744 11.1739 3.30597 11.46 3.51694 11.671C3.72792 11.882 4.01407 12.0005 4.31244 12.0005ZM14.8124 6.09424L16.9687 8.25049H14.8124V6.09424Z"/>
</svg>

<svg viewBox="0 0 24 24" xmlns="http://www.w3.org/2000/svg" aria-hidden="true" fill="currentColor"><path d="M5.062 13.876h-1.5A1.125 1.125 0 0 0 2.437 15v5.25a1.125 1.125 0 0 0 2.25 0v-.376h.375a3 3 0 0 0 0-6m0 3.75h-.375v-1.5h.375a.75.75 0 1 1 0 1.5m16.5 1.956c0 .29-.111.569-.312.778a3.19 3.19 0 0 1-2.313 1.015c-1.86 0-3.375-1.682-3.375-3.75s1.515-3.75 3.375-3.75a3.13 3.13 0 0 1 1.755.544 1.124 1.124 0 1 1-1.259 1.865.9.9 0 0 0-.496-.159c-.609 0-1.125.688-1.125 1.5s.516 1.5 1.125 1.5a.9.9 0 0 0 .254-.039 1.125 1.125 0 0 1 .871-1.835h.375a1.125 1.125 0 0 1 1.125 1.124zm-6.75-4.581v5.25a1.124 1.124 0 0 1-2.04.656l-1.71-2.396v1.74a1.125 1.125 0 1 1-2.25 0V15a1.125 1.125 0 0 1 2.04-.657l1.71 2.396V15a1.125 1.125 0 0 1 2.25 0m-10.5-3a1.125 1.125 0 0 0 1.125-1.125v-6h7.125v4.5a1.125 1.125 0 0 0 1.125 1.125h4.5v.375a1.125 1.125 0 0 0 2.25 0V9a1.12 1.12 0 0 0-.329-.795l-5.25-5.25a1.13 1.13 0 0 0-.796-.33h-9A1.875 1.875 0 0 0 3.187 4.5v6.376A1.125 1.125 0 0 0 4.312 12m10.5-5.907L16.97 8.25h-2.157z"/></svg>
